X:34
T:Reel 34
M:4/4
K:Dmaj
L:1/8
A>D (3DDD ADFD|Adcd BEGF|E>E (3EEE BEGE|GABc dcdB|A>D (3DDD ADFD|AddA BcdB|geed cABc|dced dABDD2:||2egec d2d2|Adde f2fd|ddef g2ed|cdef gcec|BABc dcBd|Addg f2ed|cdef g2ed|cABc dcBd|cdec d2Ad|
